X:52
T:T031B- Yemon O knock or Ned of the Hill
S:O'Farrell's National Irish Music (1804)
Q:1/4=60
L:1/4
M:3/4
K:G
D/E/|GBA/G/|Bg3/4f/4 e/d/4B/4|ABA/G/|~G2D/E/|GB3/4d/4 d/B/4A/4|\
Bg3/4f/4 e/d/4B/4|A B/G/ A/G/4A/4|G2::d/4e/4f/4|gf/d/ a/g/|\
fe/d/4B/4 d/g/4f/4|e/d/ B/4A/4G/4E/4 G/4A/4B/4d/4|\
e3/4f/4 g3/4a/4 g/a/4b/4|GBA/G/|Bg3/4f/4 e/4d/4B/4A/4|\
ABA/G/4A/4|~G2|]

